X:780
T:Green Cottage Polka
S:North Kerry Fiddle Music CD
Z:Nigel Gatherer
N:Haven't got the CD beside me, so I can't rmember the details
N:Not entirely sure about the transcription either -
N:relying on my poor memory!
M:2/4
L:1/8
K:Ador
e/f/e/d/ ce | ea ce | dd/c/    Bd       | dg  BD  | 
e/f/e/d/ ce | ea ce | dd/c/    BA       | a2- a2 :|
Ac       ec | ac ec | Ac       ec       | BA  a2  |
Ac       ec | ac ec | e/f/e/c/ e/f/e/c/ | BA  A2 :|
<end>
<start>
